X: 9
T:Dancing Bear
M:4/4
L:1/8
C:Bob McQuillen
R:Reel
Q:300
K:Em
"Em"EFGF EFGF|"Am"EFGA G2 E2|"Em"EFGF EFGF|"Am"EFGA G2 E2|
"Em"EFGF EFGF|EFGA B4| B2 Bc BAGF |G2 E2 E4:|
e2 ef gfef|gf e2 e2|e2 ef gfef|gf e2 e2|e2 ef gfef|gf e2 e2| B2 Bc BAGF
|G2 E2 E4:|
